X: 0
T: The Cat's Meow
C: Joannie Madden
R: Jig
M: 6/8
L: 1/8
K: Dmaj
D|: "D"FAd fef | afe dBA | "G"BdB BAF | "D"dAF "A"E2D|
"D"FAd fef | afe dBA | "G"B/2c/2de fdB | "A"AFE "D"D3 :|
e |: "D"fdB AFA | DFA d2 e | "G"gef ged | "A"ced cBA |
"D"fdB AFA | DFA d2 e | |"G"gec age |1 "A"edc "D"d2e :|2 "A"edc "D"d3 ||
|: "D"FAd fef | agf agf | "A"Ace "G"g2 g | gfe gfe |
"D"~f3 "G"~g3 |"A"aga "G"bag | "D"faa "G"gec | "A"edc "D"d3 :|